data/tilesets/flags/ethiopia.svg

<?xml version="1.0" encoding="UTF-8" standalone="no"?>
<!-- Created with Sodipodi ("http://www.sodipodi.com/") -->
<svg
   xmlns:dc="http://purl.org/dc/elements/1.1/"
   xmlns:cc="http://web.resource.org/cc/"
   xmlns:rdf="http://www.w3.org/1999/02/22-rdf-syntax-ns#"
   xmlns:svg="http://www.w3.org/2000/svg"
   xmlns="http://www.w3.org/2000/svg"
   xmlns:sodipodi="http://inkscape.sourceforge.net/DTD/sodipodi-0.dtd"
   xmlns:inkscape="http://www.inkscape.org/namespaces/inkscape"
   version="1"
   x="0"
   y="0"
   width="280mm"
   height="529.13000pt"
   id="svg378"
   sodipodi:version="0.32"
   sodipodi:docname="ethiopia.svg"
   sodipodi:docbase="/Users/daniel/Desktop/updated flags"
   inkscape:version="0.42">
  <metadata
     id="metadata3467">
    <rdf:RDF>
      <cc:Work
         rdf:about="">
        <dc:format>image/svg+xml</dc:format>
        <dc:type
           rdf:resource="http://purl.org/dc/dcmitype/StillImage" />
      </cc:Work>
    </rdf:RDF>
  </metadata>
  <sodipodi:namedview
     id="base"
     showgrid="true"
     gridoriginy="-9mm"
     gridspacingx="15mm"
     gridspacingy="15mm"
     showguides="true"
     inkscape:guide-bbox="true"
     inkscape:zoom="0.43262028"
     inkscape:cx="547.85513"
     inkscape:cy="323.85517"
     inkscape:window-width="701"
     inkscape:window-height="507"
     inkscape:window-x="47"
     inkscape:window-y="92"
     inkscape:current-layer="svg378">
    <sodipodi:guide
       orientation="vertical"
       position="490.03713"
       id="guide3473" />
  </sodipodi:namedview>
  <defs
     id="defs380" />
  <rect
     width="992.12500"
     height="661.41248"
     x="0.0000000"
     y="-2.4414063e-05"
     style="font-size:12.000000px;fill:#ffc621;fill-opacity:1.0000000;fill-rule:evenodd;stroke-width:1.0000000pt"
     id="rect171" />
  <rect
     width="991.45325"
     height="218.96373"
     x="0.0000000"
     y="442.44873"
     style="font-size:12.000000px;fill:#ef2118;fill-opacity:1.0000000;fill-rule:evenodd;stroke-width:1.0000000pt"
     id="rect289" />
  <rect
     width="992.12500"
     height="232.52342"
     x="0.0000000"
     y="-3.0517578e-05"
     style="font-size:12.000000px;fill:#298c08;fill-opacity:1.0000000;fill-rule:evenodd;stroke-width:1.0000000pt"
     id="rect288" />
  <g
     id="g3469"
     transform="matrix(1.330535,0.000000,0.000000,1.330535,-145.4553,-8.664270)">
    <ellipse
       transform="matrix(0.515258,0.000000,0.000000,0.515257,204.6805,77.01319)"
       id="path316"
       style="font-size:12.000000px;fill:#006bc6;fill-opacity:1.0000000;fill-rule:evenodd;stroke-width:1.0000000pt"
       ry="199.65176"
       rx="199.65179"
       cy="352.96780"
       cx="534.22180"
       sodipodi:cx="534.22180"
       sodipodi:cy="352.96780"
       sodipodi:rx="199.65179"
       sodipodi:ry="199.65176" />
    <path
       transform="matrix(0.515258,0.000000,0.000000,0.515257,204.6805,77.01319)"
       id="path322"
       style="font-size:12.000000px;fill:#ffc621;fill-opacity:1.0000000;fill-rule:evenodd;stroke-width:1.0000000pt"
       d="M 445.21000,211.89000 L 433.28100,220.27600 L 476.85300,281.51600 L 488.47500,274.10500 L 445.21000,211.89000 z M 499.75400,356.44100 L 481.83700,343.94800 L 489.24100,320.43900 L 399.99400,321.68500 L 374.16200,301.90700 L 495.99200,300.59400 L 518.58600,232.14400 L 530.72300,259.82100 L 499.75400,356.44100 z M 641.67000,225.36100 L 630.07100,216.52400 L 584.86000,276.56400 L 595.43700,285.40300 L 641.67000,225.36100 z M 520.35700,321.03400 L 526.85300,300.17900 L 551.50000,300.13400 L 523.34400,215.43500 L 534.39300,184.83400 L 572.45700,300.57300 L 644.53400,301.42700 L 621.81900,321.36000 L 520.35700,321.03400 z M 688.51600,415.92500 L 693.36500,402.17300 L 622.34400,377.57800 L 617.17900,390.35700 L 688.51600,415.92500 z M 560.21800,329.84300 L 582.06000,329.62200 L 589.67100,353.06500 L 661.63500,300.26600 L 694.15000,301.38600 L 595.68700,373.14500 L 617.00200,442.00300 L 591.05800,426.50400 L 560.21800,329.84300 z M 523.59100,519.15800 L 538.17100,519.37100 L 538.84500,444.21500 L 525.08600,443.39300 L 523.59100,519.15800 z M 564.28800,370.11400 L 571.45900,390.74700 L 551.66500,405.43200 L 624.64800,456.81300 L 633.95100,487.98900 L 534.55000,417.53500 L 476.07800,459.68700 L 482.49900,430.15600 L 564.28800,370.11400 z M 372.77100,394.19700 L 377.08300,408.12700 L 448.75500,385.49500 L 445.27500,372.15700 L 372.77100,394.19700 z M 527.09100,386.74200 L 509.69400,399.94900 L 489.60000,385.67600 L 463.34500,470.98200 L 436.58200,489.48100 L 472.79300,373.14900 L 414.60600,330.60400 L 444.67400,327.56500 L 527.09100,386.74200 z " />
  </g>
</svg>

<?xml version="1.0" encoding="UTF-8" standalone="no"?>
<svg
   xmlns:dc="http://purl.org/dc/elements/1.1/"
   xmlns:cc="http://creativecommons.org/ns#"
   xmlns:rdf="http://www.w3.org/1999/02/22-rdf-syntax-ns#"
   xmlns:svg="http://www.w3.org/2000/svg"
   xmlns="http://www.w3.org/2000/svg"
   xmlns:sodipodi="http://sodipodi.sourceforge.net/DTD/sodipodi-0.dtd"
   xmlns:inkscape="http://www.inkscape.org/namespaces/inkscape"
   version="1"
   x="0"
   y="0"
   width="744.09375pt"
   height="496.05936pt"
   id="svg378"
   sodipodi:version="0.32"
   sodipodi:docname="ethiopia.svg"
   inkscape:version="1.0.2 (e86c870879, 2021-01-15)">
  <metadata
     id="metadata3467">
    <rdf:RDF>
      <cc:Work
         rdf:about="">
        <dc:format>image/svg+xml</dc:format>
        <dc:type
           rdf:resource="http://purl.org/dc/dcmitype/StillImage" />
      </cc:Work>
    </rdf:RDF>
  </metadata>
  <sodipodi:namedview
     id="base"
     showgrid="true"
     showguides="true"
     inkscape:guide-bbox="true"
     inkscape:zoom="0.43262028"
     inkscape:cx="547.85513"
     inkscape:cy="323.8552"
     inkscape:window-width="884"
     inkscape:window-height="684"
     inkscape:window-x="524"
     inkscape:window-y="78"
     inkscape:current-layer="svg378"
     inkscape:document-rotation="0"
     inkscape:window-maximized="0">
    <sodipodi:guide
       orientation="vertical"
       position="522.70627,-91.128006"
       id="guide3473" />
    <inkscape:grid
       id="GridFromPre046Settings"
       type="xygrid"
       originx="0"
       originy="-36.283434"
       spacingx="60.472441"
       spacingy="60.472441"
       color="#3f3fff"
       empcolor="#3f3fff"
       opacity="0.15"
       empopacity="0.38"
       empspacing="5" />
  </sodipodi:namedview>
  <defs
     id="defs380" />
  <rect
     width="992.125"
     height="661.41248"
     x="0"
     y="6.1035153e-06"
     style="font-size:12px;fill:#ffc621;fill-opacity:1;fill-rule:evenodd;stroke-width:1pt"
     id="rect171" />
  <rect
     width="991.45325"
     height="218.96373"
     x="0"
     y="442.44876"
     style="font-size:12px;fill:#ef2118;fill-opacity:1;fill-rule:evenodd;stroke-width:1pt"
     id="rect289" />
  <rect
     width="992.125"
     height="232.52342"
     x="0"
     y="0"
     style="font-size:12px;fill:#298c08;fill-opacity:1;fill-rule:evenodd;stroke-width:1pt"
     id="rect288" />
  <g
     id="g3469"
     transform="matrix(1.330535,0,0,1.330535,-145.4553,-8.6642395)">
    <ellipse
       transform="matrix(0.515258,0,0,0.515257,204.6805,77.01319)"
       id="path316"
       style="font-size:12px;fill:#006bc6;fill-opacity:1;fill-rule:evenodd;stroke-width:1pt"
       ry="199.65176"
       rx="199.65179"
       cy="352.9678"
       cx="534.2218" />
    <path
       transform="matrix(0.515258,0,0,0.515257,204.6805,77.01319)"
       id="path322"
       style="font-size:12px;fill:#ffc621;fill-opacity:1;fill-rule:evenodd;stroke-width:1pt"
       d="m 445.21,211.89 -11.929,8.386 43.572,61.24 11.622,-7.411 z m 54.544,144.551 -17.917,-12.493 7.404,-23.509 -89.247,1.246 -25.832,-19.778 121.83,-1.313 22.594,-68.45 12.137,27.677 z m 141.916,-131.08 -11.599,-8.837 -45.211,60.04 10.577,8.839 z m -121.313,95.673 6.496,-20.855 24.647,-0.045 -28.156,-84.699 11.049,-30.601 38.064,115.739 72.077,0.854 -22.715,19.933 z m 168.159,94.891 4.849,-13.752 -71.021,-24.595 -5.165,12.779 z m -128.298,-86.082 21.842,-0.221 7.611,23.443 71.964,-52.799 32.515,1.12 -98.463,71.759 21.315,68.858 -25.944,-15.499 z m -36.627,189.315 14.58,0.213 0.674,-75.156 -13.759,-0.822 z m 40.697,-149.044 7.171,20.633 -19.794,14.685 72.983,51.381 9.303,31.176 -99.401,-70.454 -58.472,42.152 6.421,-29.531 z m -191.517,24.083 4.312,13.93 71.672,-22.632 -3.48,-13.338 z m 154.32,-7.455 -17.397,13.207 -20.094,-14.273 -26.255,85.306 -26.763,18.499 36.211,-116.332 -58.187,-42.545 30.068,-3.039 z" />
  </g>
</svg>
